file/dior.svg

<svg clip-rule="evenodd" fill-rule="evenodd" stroke-linejoin="round" stroke-miterlimit="1.41421" viewBox="0 0 560 400" xmlns="http://www.w3.org/2000/svg"><path d="m202.387 67.089c12.59-2.355 30.498.422 34.57 20.126 4.063 19.704-9.499 30.194-21.264 32.755-11.501 2.493-31.028.717-34.561-20.479-3.179-19.027 10.628-30.42 21.255-32.402zm-120.315 52.675h-71.182c-.873 0-1.786-.118-1.786-1.001 0-.991 1.286-1.158 2.483-1.197 13.826-.392 16.407-.873 17.987-2.512.863-.903 2.129-1.639 2.129-8.046v-88.158c0-7.919-9.616-6.663-16.407-7.36-2.384-.235-2.58-.559-2.58-1.256 0-.687.451-1.021 1.697-1.07h55.707c61.252 0 64.382 44.776 64.382 56.718 0 25.661-16.966 53.882-52.43 53.882zm195.039-.108h-29.772c-.952 0-1.334-.186-1.334-.745 0-.776 1.246-.638 2.198-.776.952-.127 5.986.285 7.428-2.247 1.06-1.658.932-4.327.932-4.327l-.147-31.489c0-2.542-.756-2.915-1.452-3.317-.707-.403-1.875-.618-4.338.216-2.325.765-3.925 1.481-4.366.51-.089-.53-.089-.991 2.551-1.815 2.63-.815 9.028-2.983 12.914-5.132 3.886-2.169 4.533-2.473 5.446-1.865.912.599.647 2.071.647 3.111v10.539c1.423-2.336 6.094-10.107 9.803-12.394 2.915-1.805 3.945-1.953 5.751-1.992 2.168-.039 7.291 1.295 7.516 6.702.177 4.23-2.944 5.927-4.926 5.662-1.589-.225-2.728-1.688-3.67-3.159-.952-1.492-2.463-2.375-3.974-1.865-1.511.52-9.979 6.015-10.46 13.826-.344 5.751 0 23.679 0 23.679 0 2.718 1.04 3.768 2.257 4.494 1.207.736 5.652.775 6.898.952 1.266.176 1.217.471 1.217.863 0 .383 0 .569-1.119.569zm-104.3 0h-29.546c-.913 0-1.129-.392-1.129-.775 0-.481.403-.785 1.776-.785 1.158 0 6.506.402 7.723-2.375.471-1.059.697-2.541.697-3.925v-32.323c0-2.453-1.904-3.542-4.102-3.013-2.571.589-5.564 2.041-6.094 1.031-.402-.775.344-1.276 2.552-1.855 2.463-.657 7.86-2.296 12.138-4.72 4.278-2.414 5.014-2.669 5.917-2.374.913.304.824 1.903.824 3.198v40.743c0 2.287.305 3.238 1.335 4.19 1.04.952 3.631 1.511 6.997 1.511 1.521 0 1.992.177 1.992.825 0 .647-.471.647-1.08.647zm19.9-24.139c1.463 13.218 9.332 23.501 19.086 21.774 9.774-1.727 14.67-11.059 13.493-26.003-1.207-15.2-8.724-22.786-18.841-21.873-10.46.952-15.209 12.874-13.738 26.102zm-128.066-82.545h-11.373c-2.699 0-2.836 1.197-2.836 3.081v98.02c0 2.139.756 2.394 2.895 2.394h7.3c27.162 0 34.453-2.522 44.011-15.219 9.557-12.698 10.696-30.93 10.696-37.093 0-6.162-1.639-21.627-11.197-34.708-9.567-13.08-25.532-16.475-39.496-16.475zm92.554 36.336c4.013 0 7.271-3.257 7.271-7.261 0-4.013-3.258-7.261-7.271-7.261-4.004 0-7.252 3.248-7.252 7.261 0 4.004 3.248 7.261 7.252 7.261z" fill="#211e1e" fill-rule="nonzero" transform="matrix(1.27754 0 0 1.27754 88.3686 116.96)"/></svg>

<?xml version="1.0" encoding="UTF-8" standalone="no"?>
<!DOCTYPE svg PUBLIC "-//W3C//DTD SVG 1.1//EN" "http://www.w3.org/Graphics/SVG/1.1/DTD/svg11.dtd">
<svg width="100%" height="100%" viewBox="0 0 560 400" version="1.1" xmlns="http://www.w3.org/2000/svg" xmlns:xlink="http://www.w3.org/1999/xlink" xml:space="preserve" xmlns:serif="http://www.serif.com/" style="fill-rule:evenodd;clip-rule:evenodd;stroke-linejoin:round;stroke-miterlimit:1.41421;">
    <g id="path2495" transform="matrix(1.27754,0,0,1.27754,88.3686,116.96)">
        <path d="M202.387,67.089C214.977,64.734 232.885,67.511 236.957,87.215C241.02,106.919 227.458,117.409 215.693,119.97C204.192,122.463 184.665,120.687 181.132,99.491C177.953,80.464 191.76,69.071 202.387,67.089ZM82.072,119.764L10.89,119.764C10.017,119.764 9.104,119.646 9.104,118.763C9.104,117.772 10.39,117.605 11.587,117.566C25.413,117.174 27.994,116.693 29.574,115.054C30.437,114.151 31.703,113.415 31.703,107.008L31.703,18.85C31.703,10.931 22.087,12.187 15.296,11.49C12.912,11.255 12.716,10.931 12.716,10.234C12.716,9.547 13.167,9.213 14.413,9.164L70.12,9.164C131.372,9.164 134.502,53.94 134.502,65.882C134.502,91.543 117.536,119.764 82.072,119.764ZM277.111,119.656L247.339,119.656C246.387,119.656 246.005,119.47 246.005,118.911C246.005,118.135 247.251,118.273 248.203,118.135C249.155,118.008 254.189,118.42 255.631,115.888C256.691,114.23 256.563,111.561 256.563,111.561L256.416,80.072C256.416,77.53 255.66,77.157 254.964,76.755C254.257,76.352 253.089,76.137 250.626,76.971C248.301,77.736 246.701,78.452 246.26,77.481C246.171,76.951 246.171,76.49 248.811,75.666C251.441,74.851 257.839,72.683 261.725,70.534C265.611,68.365 266.258,68.061 267.171,68.669C268.083,69.268 267.818,70.74 267.818,71.78L267.818,82.319C269.241,79.983 273.912,72.212 277.621,69.925C280.536,68.12 281.566,67.972 283.372,67.933C285.54,67.894 290.663,69.228 290.888,74.635C291.065,78.865 287.944,80.562 285.962,80.297C284.373,80.072 283.234,78.609 282.292,77.138C281.34,75.646 279.829,74.763 278.318,75.273C276.807,75.793 268.339,81.288 267.858,89.099C267.514,94.85 267.858,112.778 267.858,112.778C267.858,115.496 268.898,116.546 270.115,117.272C271.322,118.008 275.767,118.047 277.013,118.224C278.279,118.4 278.23,118.695 278.23,119.087C278.23,119.47 278.23,119.656 277.111,119.656ZM172.811,119.656L143.265,119.656C142.352,119.656 142.136,119.264 142.136,118.881C142.136,118.4 142.539,118.096 143.912,118.096C145.07,118.096 150.418,118.498 151.635,115.721C152.106,114.662 152.332,113.18 152.332,111.796L152.332,79.473C152.332,77.02 150.428,75.931 148.23,76.46C145.659,77.049 142.666,78.501 142.136,77.491C141.734,76.716 142.48,76.215 144.688,75.636C147.151,74.979 152.548,73.34 156.826,70.916C161.104,68.502 161.84,68.247 162.743,68.542C163.656,68.846 163.567,70.445 163.567,71.74L163.567,112.483C163.567,114.77 163.872,115.721 164.902,116.673C165.942,117.625 168.533,118.184 171.899,118.184C173.42,118.184 173.891,118.361 173.891,119.009C173.891,119.656 173.42,119.656 172.811,119.656ZM192.711,95.517C194.174,108.735 202.043,119.018 211.797,117.291C221.571,115.564 226.467,106.232 225.29,91.288C224.083,76.088 216.566,68.502 206.449,69.415C195.989,70.367 191.24,82.289 192.711,95.517ZM64.645,12.972L53.272,12.972C50.573,12.972 50.436,14.169 50.436,16.053L50.436,114.073C50.436,116.212 51.192,116.467 53.331,116.467L60.631,116.467C87.793,116.467 95.084,113.945 104.642,101.248C114.199,88.55 115.338,70.318 115.338,64.155C115.338,57.993 113.699,42.528 104.141,29.447C94.574,16.367 78.609,12.972 64.645,12.972ZM157.199,49.308C161.212,49.308 164.47,46.051 164.47,42.047C164.47,38.034 161.212,34.786 157.199,34.786C153.195,34.786 149.947,38.034 149.947,42.047C149.947,46.051 153.195,49.308 157.199,49.308Z" style="fill:rgb(33,30,30);fill-rule:nonzero;"/>
    </g>
</svg>
